; generated by Slic3r 0.7.1 on 2012-09-07 at 12:31:25

; layer_height = 0.4
; perimeters = 3
; solid_layers = 3
; fill_density = 0.4
; nozzle_diameter = 0.5
; filament_diameter = 3
; extrusion_multiplier = 1
; perimeter_speed = 30
; infill_speed = 60
; travel_speed = 130
; extrusion_width_ratio = 0
; scale = 1
; single wall width = 0.53mm

M104 S200 ; set temperature
G28 ; home all axes
M109 S200 ; wait for temperature to be reached
G90 ; use absolute coordinates
G21 ; set units to millimeters
G92 E0 ; reset extrusion distance
M82 ; use absolute distances for extrusion
G1 Z0.400 F7800.000
G1 X90.060 Y91.250
G1 F1800.000 E1.00000
G1 X91.250 Y90.060 F540.000 E1.04949
G1 X91.900 Y89.530 E1.07415
G1 X93.110 Y88.690 E1.11746
G1 X93.670 Y88.370 E1.13643
G1 X95.010 Y87.750 E1.17984
G1 X95.940 Y87.410 E1.20896
G1 X97.570 Y86.980 E1.25853
G1 X98.210 Y86.890 E1.27754
G1 X99.890 Y86.760 E1.32709
G1 X100.520 Y86.780 E1.34562
G1 X101.770 Y86.890 E1.38252
G1 X102.760 Y87.070 E1.41211
G1 X104.190 Y87.440 E1.45554
G1 X104.790 Y87.660 E1.47433
G1 X106.130 Y88.280 E1.51775
G1 X107.020 Y88.790 E1.54791
G1 X108.410 Y89.770 E1.59792
G1 X108.910 Y90.220 E1.61770
G1 X109.800 Y91.120 E1.65492
G1 X109.790 Y91.130 E1.65534
G1 X110.460 Y91.910 E1.68558
G1 X111.170 Y92.920 E1.72188
G1 X111.630 Y93.690 E1.74825
G1 X112.240 Y95.010 E1.79101
G1 X112.580 Y95.950 E1.82041
G1 X113.010 Y97.590 E1.87026
G1 X113.080 Y98.010 E1.88278
G1 X113.230 Y99.900 E1.93853
G1 X113.210 Y100.530 E1.95707
G1 X113.100 Y101.780 E1.99397
G1 X112.920 Y102.770 E2.02355
G1 X112.540 Y104.210 E2.06735
G1 X112.400 Y104.630 E2.08037
G1 X111.680 Y106.180 E2.13062
G1 X111.190 Y107.030 E2.15947
G1 X110.350 Y108.240 E2.20279
G1 X110.080 Y108.580 E2.21555
G1 X108.580 Y110.080 E2.27793
G1 X108.240 Y110.350 E2.29070
G1 X107.030 Y111.190 E2.33401
G1 X106.180 Y111.680 E2.36286
G1 X104.630 Y112.400 E2.41312
G1 X104.210 Y112.540 E2.42614
G1 X102.770 Y112.920 E2.46993
G1 X101.770 Y113.100 E2.49981
G1 X100.090 Y113.230 E2.54935
G1 X99.460 Y113.210 E2.56789
G1 X97.790 Y113.050 E2.61722
G1 X97.480 Y112.990 E2.62651
G1 X95.640 Y112.490 E2.68257
G1 X95.610 Y112.480 E2.68350
G1 X94.980 Y112.230 E2.70343
G1 X93.460 Y111.510 E2.75289
G1 X91.880 Y110.440 E2.80900
G1 X91.090 Y109.770 E2.83946
G1 X90.050 Y108.730 E2.88271
G1 X89.520 Y108.080 E2.90737
G1 X88.680 Y106.870 E2.95069
G1 X88.360 Y106.310 E2.96965
G1 X87.740 Y104.970 E3.01307
G1 X87.390 Y103.990 E3.04367
G1 X87.070 Y102.780 E3.08047
G1 X86.890 Y101.770 E3.11064
G1 X86.760 Y100.090 E3.16019
G1 X86.780 Y99.470 E3.17843
G1 X86.980 Y97.570 E3.23461
G1 X87.410 Y95.940 E3.28418
G1 X87.760 Y94.990 E3.31395
G1 X88.290 Y93.850 E3.35092
G1 X88.800 Y92.960 E3.38108
G1 X89.640 Y91.750 E3.42439
G1 X89.910 Y91.410 E3.43716
G1 X90.006 Y91.307 E3.44129
G1 F1800.000 E2.44129
G92 E0
G1 X98.649 Y98.866 F7800.000
G1 F1800.000 E1.00000
G1 X98.866 Y98.649 F540.000 E1.00904
G1 X99.118 Y98.473 E1.01808
G1 X99.397 Y98.343 E1.02712
G1 X99.694 Y98.263 E1.03616
G1 X100.000 Y98.236 E1.04520
G1 X100.306 Y98.263 E1.05424
G1 X100.603 Y98.343 E1.06327
G1 X100.882 Y98.473 E1.07231
G1 X101.134 Y98.649 E1.08135
G1 X101.351 Y98.866 E1.09039
G1 X101.527 Y99.118 E1.09943
G1 X101.657 Y99.397 E1.10847
G1 X101.737 Y99.694 E1.11751
G1 X101.764 Y100.000 E1.12655
G1 X101.737 Y100.306 E1.13559
G1 X101.657 Y100.603 E1.14463
G1 X101.527 Y100.882 E1.15367
G1 X101.351 Y101.134 E1.16270
G1 X101.134 Y101.351 E1.17174
G1 X100.882 Y101.527 E1.18078
G1 X100.603 Y101.657 E1.18982
G1 X100.306 Y101.737 E1.19886
G1 X100.000 Y101.764 E1.20790
G1 X99.694 Y101.737 E1.21694
G1 X99.397 Y101.657 E1.22598
G1 X99.118 Y101.527 E1.23502
G1 X98.866 Y101.351 E1.24406
G1 X98.649 Y101.134 E1.25310
G1 X98.473 Y100.882 E1.26214
G1 X98.343 Y100.603 E1.27117
G1 X98.263 Y100.306 E1.28021
G1 X98.236 Y100.000 E1.28925
G1 X98.263 Y99.694 E1.29829
G1 X98.343 Y99.397 E1.30733
G1 X98.473 Y99.118 E1.31637
G1 X98.604 Y98.931 E1.32309
G1 X98.253 Y98.534 F7800.000
G1 X98.534 Y98.253 F540.000 E1.33478
G1 X98.860 Y98.025 E1.34647
G1 X99.220 Y97.857 E1.35816
G1 X99.604 Y97.754 E1.36985
G1 X100.000 Y97.719 E1.38154
G1 X100.396 Y97.754 E1.39323
G1 X100.780 Y97.857 E1.40492
G1 X101.140 Y98.025 E1.41661
G1 X101.466 Y98.253 E1.42830
G1 X101.747 Y98.534 E1.43999
G1 X101.975 Y98.860 E1.45168
G1 X102.143 Y99.220 E1.46337
G1 X102.246 Y99.604 E1.47506
G1 X102.281 Y100.000 E1.48675
G1 X102.246 Y100.396 E1.49844
G1 X102.143 Y100.780 E1.51013
G1 X101.975 Y101.140 E1.52182
G1 X101.747 Y101.466 E1.53351
G1 X101.466 Y101.747 E1.54520
G1 X101.140 Y101.975 E1.55689
G1 X100.780 Y102.143 E1.56858
G1 X100.396 Y102.246 E1.58027
G1 X100.000 Y102.281 E1.59196
G1 X99.604 Y102.246 E1.60365
G1 X99.220 Y102.143 E1.61534
G1 X98.860 Y101.975 E1.62703
G1 X98.534 Y101.747 E1.63872
G1 X98.253 Y101.466 E1.65041
G1 X98.025 Y101.140 E1.66210
G1 X97.857 Y100.780 E1.67379
G1 X97.754 Y100.396 E1.68548
G1 X97.719 Y100.000 E1.69717
G1 X97.754 Y99.604 E1.70886
G1 X97.857 Y99.220 E1.72055
G1 X98.025 Y98.860 E1.73224
G1 X98.208 Y98.599 E1.74162
G1 X97.857 Y98.202 F7800.000
G1 X98.202 Y97.857 F540.000 E1.75596
G1 X98.601 Y97.577 E1.77030
G1 X99.043 Y97.371 E1.78464
G1 X99.514 Y97.245 E1.79898
G1 X100.000 Y97.202 E1.81332
G1 X100.486 Y97.245 E1.82766
G1 X100.957 Y97.371 E1.84200
G1 X101.399 Y97.577 E1.85634
G1 X101.798 Y97.857 E1.87068
G1 X102.143 Y98.202 E1.88502
G1 X102.423 Y98.601 E1.89936
G1 X102.629 Y99.043 E1.91370
G1 X102.755 Y99.514 E1.92804
G1 X102.798 Y100.000 E1.94238
G1 X102.755 Y100.486 E1.95673
G1 X102.629 Y100.957 E1.97107
G1 X102.423 Y101.399 E1.98541
G1 X102.143 Y101.798 E1.99975
G1 X101.798 Y102.143 E2.01409
G1 X101.399 Y102.423 E2.02843
G1 X100.957 Y102.629 E2.04277
G1 X100.486 Y102.755 E2.05711
G1 X100.000 Y102.798 E2.07145
G1 X99.514 Y102.755 E2.08579
G1 X99.043 Y102.629 E2.10013
G1 X98.601 Y102.423 E2.11447
G1 X98.202 Y102.143 E2.12881
G1 X97.857 Y101.798 E2.14315
G1 X97.577 Y101.399 E2.15749
G1 X97.371 Y100.957 E2.17184
G1 X97.245 Y100.486 E2.18618
G1 X97.202 Y100.000 E2.20052
G1 X97.245 Y99.514 E2.21486
G1 X97.371 Y99.043 E2.22920
G1 X97.577 Y98.601 E2.24354
G1 X97.812 Y98.266 E2.25556
G1 F1800.000 E1.25556
G92 E0
G1 X95.248 Y96.014 F7800.000
G1 F1800.000 E1.00000
G1 X96.012 Y95.250 F540.000 E1.03176
G1 X96.896 Y94.630 E1.06351
G1 X97.875 Y94.173 E1.09527
G1 X98.918 Y93.893 E1.12702
G1 X99.993 Y93.798 E1.15878
G1 X101.069 Y93.891 E1.19053
G1 X102.113 Y94.169 E1.22228
G1 X103.092 Y94.624 E1.25404
G1 X103.978 Y95.242 E1.28579
G1 X104.753 Y96.014 E1.31796
G1 X105.372 Y96.899 E1.34972
G1 X105.827 Y97.874 E1.38137
G1 X106.108 Y98.923 E1.41330
G1 X106.202 Y100.000 E1.44509
G1 X106.108 Y101.077 E1.47688
G1 X105.828 Y102.121 E1.50867
G1 X105.371 Y103.101 E1.54046
G1 X104.751 Y103.987 E1.57225
G1 X103.987 Y104.751 E1.60404
G1 X103.101 Y105.371 E1.63583
G1 X102.121 Y105.828 E1.66762
G1 X101.077 Y106.108 E1.69942
G1 X99.994 Y106.203 E1.73138
G1 X98.923 Y106.109 E1.76299
G1 X97.880 Y105.829 E1.79476
G1 X96.889 Y105.365 E1.82692
G1 X96.006 Y104.744 E1.85868
G1 X95.243 Y103.980 E1.89043
G1 X94.625 Y103.094 E1.92219
G1 X94.170 Y102.115 E1.95394
G1 X93.891 Y101.072 E1.98570
G1 X93.798 Y99.996 E2.01745
G1 X93.893 Y98.920 E2.04921
G1 X94.172 Y97.877 E2.08096
G1 X94.629 Y96.898 E2.11272
G1 X95.203 Y96.078 E2.14216
G1 X94.852 Y95.681 F7800.000
G1 X95.679 Y94.854 F540.000 E2.17656
G1 X96.638 Y94.183 E2.21096
G1 X97.698 Y93.687 E2.24536
G1 X98.827 Y93.384 E2.27977
G1 X99.993 Y93.281 E2.31417
G1 X101.158 Y93.381 E2.34857
G1 X102.289 Y93.683 E2.38297
G1 X103.350 Y94.176 E2.41738
G1 X104.309 Y94.845 E2.45178
G1 X105.149 Y95.681 E2.48661
G1 X105.820 Y96.640 E2.52104
G1 X106.313 Y97.697 E2.55534
G1 X106.617 Y98.833 E2.58992
G1 X106.719 Y100.000 E2.62436
G1 X106.617 Y101.167 E2.65880
G1 X106.314 Y102.298 E2.69324
G1 X105.819 Y103.360 E2.72768
G1 X105.147 Y104.319 E2.76212
G1 X104.319 Y105.147 E2.79656
G1 X103.360 Y105.819 E2.83101
G1 X102.298 Y106.314 E2.86545
G1 X101.167 Y106.617 E2.89989
G1 X99.994 Y106.720 E2.93450
G1 X98.833 Y106.618 E2.96877
G1 X97.702 Y106.315 E3.00320
G1 X96.630 Y105.813 E3.03803
G1 X95.673 Y105.140 E3.07243
G1 X94.847 Y104.311 E3.10683
G1 X94.177 Y103.352 E3.14123
G1 X93.684 Y102.291 E3.17564
G1 X93.382 Y101.161 E3.21004
G1 X93.281 Y99.995 E3.24444
G1 X93.383 Y98.830 E3.27884
G1 X93.687 Y97.700 E3.31325
G1 X94.181 Y96.640 E3.34765
G1 X94.807 Y95.746 E3.37974
G1 X94.456 Y95.349 F7800.000
G1 X95.347 Y94.458 F540.000 E3.41679
G1 X96.379 Y93.735 E3.45384
G1 X97.520 Y93.202 E3.49089
G1 X98.737 Y92.875 E3.52794
G1 X99.992 Y92.764 E3.56499
G1 X101.248 Y92.872 E3.60204
G1 X102.465 Y93.197 E3.63909
G1 X103.608 Y93.727 E3.67614
G1 X104.641 Y94.448 E3.71319
G1 X105.539 Y95.342 E3.75045
G1 X105.555 Y95.363 E3.75121
G1 X106.263 Y96.374 E3.78751
G1 X106.275 Y96.397 E3.78828
G1 X106.799 Y97.521 E3.82473
G1 X107.127 Y98.743 E3.86196
G1 X107.236 Y100.000 E3.89905
G1 X107.127 Y101.257 E3.93614
G1 X106.800 Y102.475 E3.97323
G1 X106.267 Y103.618 E4.01032
G1 X105.543 Y104.652 E4.04742
G1 X104.652 Y105.543 E4.08451
G1 X103.618 Y106.267 E4.12160
G1 X102.475 Y106.800 E4.15869
G1 X101.257 Y107.127 E4.19578
G1 X99.994 Y107.237 E4.23305
G1 X98.761 Y107.129 E4.26946
G1 X98.735 Y107.125 E4.27023
G1 X97.542 Y106.806 E4.30653
G1 X97.518 Y106.798 E4.30729
G1 X96.370 Y106.260 E4.34455
G1 X95.340 Y105.536 E4.38160
G1 X94.450 Y104.643 E4.41865
G1 X93.729 Y103.610 E4.45570
G1 X93.197 Y102.468 E4.49275
G1 X92.872 Y101.250 E4.52980
G1 X92.764 Y99.995 E4.56685
G1 X92.874 Y98.740 E4.60390
G1 X93.201 Y97.523 E4.64095
G1 X93.733 Y96.381 E4.67800
G1 X94.411 Y95.414 E4.71274
G1 X95.475 Y96.228 F7800.000
G1 X97.467 Y98.221 F1080.000 E4.80008
G1 X97.813 Y97.813 F7800.000
G1 X95.847 Y95.847 F1080.000 E4.88629
G1 X96.229 Y95.475 F7800.000
G1 X98.221 Y97.467 F1080.000 E4.97362
G1 X98.692 Y97.184 F7800.000
G1 X96.672 Y95.164 F1080.000 E5.06217
G1 X97.132 Y94.871 F7800.000
G1 X99.236 Y96.974 F1080.000 E5.15438
G1 X99.873 Y96.858 F7800.000
G1 X97.646 Y94.631 F1080.000 E5.25201
G1 X98.200 Y94.431 F7800.000
G1 X100.647 Y96.877 F1080.000 E5.35925
G1 X101.797 Y97.274 F7800.000
G1 X98.795 Y94.271 F1080.000 E5.49087
G1 X99.477 Y94.199 F7800.000
G1 X105.801 Y100.523 F1080.000 E5.76810
G1 X105.800 Y99.769 E5.79149
G1 X100.231 Y94.200 E6.03562
G1 X101.112 Y94.326 E6.06319
G1 X105.674 Y98.889 E6.26320
G1 X105.272 Y97.733 E6.30115
G1 X102.269 Y94.730 E6.43277
G1 X102.726 Y98.203 F7800.000
G1 X105.729 Y101.205 F1080.000 E6.56438
G1 X105.569 Y101.800 E6.58346
G1 X103.123 Y99.353 E6.69071
G1 X103.142 Y100.127 E6.71469
G1 X105.369 Y102.353 E6.81231
G1 X105.129 Y102.868 E6.82989
G1 X103.026 Y100.764 E6.92211
G1 X102.816 Y101.308 F7800.000
G1 X104.836 Y103.328 F1080.000 E7.01066
G1 X104.525 Y103.771 F7800.000
G1 X102.533 Y101.779 F1080.000 E7.09800
G1 X102.187 Y102.187 F7800.000
G1 X104.153 Y104.153 F1080.000 E7.18421
G1 X103.772 Y104.525 F7800.000
G1 X101.779 Y102.533 F1080.000 E7.27154
G1 X101.308 Y102.816 F7800.000
G1 X103.328 Y104.836 F1080.000 E7.36009
G1 X102.868 Y105.129 F7800.000
G1 X100.764 Y103.026 F1080.000 E7.45231
G1 X100.127 Y103.142 F7800.000
G1 X102.354 Y105.369 F1080.000 E7.54993
G1 X101.800 Y105.569 E7.56818
G1 X99.353 Y103.123 E7.67542
G1 X98.203 Y102.727 E7.71313
G1 X101.205 Y105.729 E7.84474
G1 X100.523 Y105.801 E7.86599
G1 X94.199 Y99.476 E8.14323
G1 X94.200 Y100.231 E8.16661
G1 X99.770 Y105.801 E8.41081
G1 X98.890 Y105.676 E8.43836
G1 X94.326 Y101.111 E8.63845
G1 X94.730 Y102.269 E8.67646
G1 X97.730 Y105.269 E8.80799
G1 X97.273 Y101.797 F7800.000
G1 X94.271 Y98.795 F1080.000 E8.93960
G1 X94.431 Y98.200 F7800.000
G1 X96.877 Y100.647 F1080.000 E9.04684
G1 X96.858 Y99.873 F7800.000
G1 X94.631 Y97.646 F1080.000 E9.14446
G1 X94.871 Y97.132 F7800.000
G1 X96.974 Y99.236 F1080.000 E9.23668
G1 X97.184 Y98.692 F7800.000
G1 X95.164 Y96.672 F1080.000 E9.32523
G1 F1800.000 E8.32523
G92 E0
G1 Z0.800 F7800.000
G1 X98.473 Y99.118
G1 F1800.000 E1.00000
G1 X98.649 Y98.866 F1800.000 E1.00904
G1 X98.866 Y98.649 E1.01808
G1 X99.118 Y98.473 E1.02712
G1 X99.397 Y98.343 E1.03616
G1 X99.694 Y98.263 E1.04520
G1 X100.000 Y98.236 E1.05424
G1 X100.306 Y98.263 E1.06327
G1 X100.603 Y98.343 E1.07231
G1 X100.882 Y98.473 E1.08135
G1 X101.134 Y98.649 E1.09039
G1 X101.351 Y98.866 E1.09943
G1 X101.527 Y99.118 E1.10847
G1 X101.657 Y99.397 E1.11751
G1 X101.737 Y99.694 E1.12655
G1 X101.764 Y100.000 E1.13559
G1 X101.737 Y100.306 E1.14463
G1 X101.657 Y100.603 E1.15367
G1 X101.527 Y100.882 E1.16270
G1 X101.351 Y101.134 E1.17174
G1 X101.134 Y101.351 E1.18078
G1 X100.882 Y101.527 E1.18982
G1 X100.603 Y101.657 E1.19886
G1 X100.306 Y101.737 E1.20790
G1 X100.000 Y101.764 E1.21694
G1 X99.694 Y101.737 E1.22598
G1 X99.397 Y101.657 E1.23502
G1 X99.118 Y101.527 E1.24406
G1 X98.866 Y101.351 E1.25310
G1 X98.649 Y101.134 E1.26214
G1 X98.473 Y100.882 E1.27117
G1 X98.343 Y100.603 E1.28021
G1 X98.263 Y100.306 E1.28925
G1 X98.236 Y100.000 E1.29829
G1 X98.263 Y99.694 E1.30733
G1 X98.343 Y99.397 E1.31637
G1 X98.439 Y99.190 E1.32309
G1 X98.025 Y98.860 F7800.000
G1 X98.253 Y98.534 F1800.000 E1.33478
G1 X98.534 Y98.253 E1.34647
G1 X98.860 Y98.025 E1.35816
G1 X99.220 Y97.857 E1.36985
G1 X99.604 Y97.754 E1.38154
G1 X100.000 Y97.719 E1.39323
G1 X100.396 Y97.754 E1.40492
G1 X100.780 Y97.857 E1.41661
G1 X101.140 Y98.025 E1.42830
G1 X101.466 Y98.253 E1.43999
G1 X101.747 Y98.534 E1.45168
G1 X101.975 Y98.860 E1.46337
G1 X102.143 Y99.220 E1.47506
G1 X102.246 Y99.604 E1.48675
G1 X102.281 Y100.000 E1.49844
G1 X102.246 Y100.396 E1.51013
G1 X102.143 Y100.780 E1.52182
G1 X101.975 Y101.140 E1.53351
G1 X101.747 Y101.466 E1.54520
G1 X101.466 Y101.747 E1.55689
G1 X101.140 Y101.975 E1.56858
G1 X100.780 Y102.143 E1.58027
G1 X100.396 Y102.246 E1.59196
G1 X100.000 Y102.281 E1.60365
G1 X99.604 Y102.246 E1.61534
G1 X99.220 Y102.143 E1.62703
G1 X98.860 Y101.975 E1.63872
G1 X98.534 Y101.747 E1.65041
G1 X98.253 Y101.466 E1.66210
G1 X98.025 Y101.140 E1.67379
G1 X97.857 Y100.780 E1.68548
G1 X97.754 Y100.396 E1.69717
G1 X97.719 Y100.000 E1.70886
G1 X97.754 Y99.604 E1.72055
G1 X97.857 Y99.220 E1.73224
G1 X97.992 Y98.931 E1.74162
G1 X97.577 Y98.601 F7800.000
G1 X97.857 Y98.202 F1800.000 E1.75596
G1 X98.202 Y97.857 E1.77030
G1 X98.601 Y97.577 E1.78464
G1 X99.043 Y97.371 E1.79898
G1 X99.514 Y97.245 E1.81332
G1 X100.000 Y97.202 E1.82766
G1 X100.486 Y97.245 E1.84200
G1 X100.957 Y97.371 E1.85634
G1 X101.399 Y97.577 E1.87068
G1 X101.798 Y97.857 E1.88502
G1 X102.143 Y98.202 E1.89936
G1 X102.423 Y98.601 E1.91370
G1 X102.629 Y99.043 E1.92804
G1 X102.755 Y99.514 E1.94238
G1 X102.798 Y100.000 E1.95673
G1 X102.755 Y100.486 E1.97107
G1 X102.629 Y100.957 E1.98541
G1 X102.423 Y101.399 E1.99975
G1 X102.143 Y101.798 E2.01409
G1 X101.798 Y102.143 E2.02843
G1 X101.399 Y102.423 E2.04277
G1 X100.957 Y102.629 E2.05711
G1 X100.486 Y102.755 E2.07145
G1 X100.000 Y102.798 E2.08579
G1 X99.514 Y102.755 E2.10013
G1 X99.043 Y102.629 E2.11447
G1 X98.601 Y102.423 E2.12881
G1 X98.202 Y102.143 E2.14315
G1 X97.857 Y101.798 E2.15749
G1 X97.577 Y101.399 E2.17184
G1 X97.371 Y100.957 E2.18618
G1 X97.245 Y100.486 E2.20052
G1 X97.202 Y100.000 E2.21486
G1 X97.245 Y99.514 E2.22920
G1 X97.371 Y99.043 E2.24354
G1 X97.544 Y98.672 E2.25556
G1 F1800.000 E1.25556
G92 E0
G1 X94.630 Y96.897 F7800.000
G1 F1800.000 E1.00000
G1 X95.248 Y96.015 F1800.000 E1.03168
G1 X96.009 Y95.252 E1.06337
G1 X96.891 Y94.633 E1.09505
G1 X97.867 Y94.176 E1.12674
G1 X98.907 Y93.895 E1.15842
G1 X99.980 Y93.798 E1.19011
G1 X101.054 Y93.888 E1.22179
G1 X102.096 Y94.163 E1.25347
G1 X103.074 Y94.614 E1.28515
G1 X103.960 Y95.227 E1.31683
G1 X104.748 Y96.007 E1.34945
G1 X104.767 Y96.031 E1.35035
G1 X105.367 Y96.888 E1.38111
G1 X105.384 Y96.918 E1.38211
G1 X105.825 Y97.865 E1.41283
G1 X106.108 Y98.923 E1.44503
G1 X106.202 Y100.000 E1.47682
G1 X106.108 Y101.077 E1.50861
G1 X105.828 Y102.121 E1.54040
G1 X105.371 Y103.101 E1.57219
G1 X104.751 Y103.987 E1.60398
G1 X103.987 Y104.751 E1.63577
G1 X103.101 Y105.371 E1.66756
G1 X102.121 Y105.828 E1.69935
G1 X101.077 Y106.108 E1.73114
G1 X99.983 Y106.204 E1.76345
G1 X98.946 Y106.113 E1.79406
G1 X98.912 Y106.108 E1.79506
G1 X97.901 Y105.837 E1.82583
G1 X97.872 Y105.828 E1.82673
G1 X96.870 Y105.353 E1.85934
